source/images/icons/icon-editorial/permis-animal-generique.svg

<?xml version="1.0" encoding="UTF-8"?>
<svg width="80px" height="80px" viewBox="0 0 80 80" version="1.1" xmlns="http://www.w3.org/2000/svg" xmlns:xlink="http://www.w3.org/1999/xlink">
    <!-- Generator: Sketch 55.2 (78181) - https://sketchapp.com -->
    <title>Illustrative Icons/Permis-animal-generique</title>
    <desc>Created with Sketch.</desc>
    <g id="Illustrative-Icons/Permis-animal-generique" stroke="none" stroke-width="1" fill="none" fill-rule="evenodd">
        <path d="M53.5882353,33.6458333 C52.6693078,33.6458333 51.9243697,32.900574 51.9243697,31.98125 C51.9243697,31.061926 52.6693078,30.3166667 53.5882353,30.3166667 L63.5714286,30.3166667 C64.4903561,30.3166667 65.2352941,31.061926 65.2352941,31.98125 C65.2352941,32.900574 64.4903561,33.6458333 63.5714286,33.6458333 L53.5882353,33.6458333 Z M53.5882353,41.96875 C52.6693078,41.96875 51.9243697,41.2234906 51.9243697,40.3041667 C51.9243697,39.3848428 52.6693078,38.6395833 53.5882353,38.6395833 L60.2436975,38.6395833 C61.162625,38.6395833 61.907563,39.3848428 61.907563,40.3041667 C61.907563,41.2234906 61.162625,41.96875 60.2436975,41.96875 L53.5882353,41.96875 Z M53.5882353,50.2916667 C52.6693078,50.2916667 51.9243697,49.5464072 51.9243697,48.6270833 C51.9243697,47.7077594 52.6693078,46.9625 53.5882353,46.9625 L61.907563,46.9625 C62.8264905,46.9625 63.5714286,47.7077594 63.5714286,48.6270833 C63.5714286,49.5464072 62.8264905,50.2916667 61.907563,50.2916667 L53.5882353,50.2916667 Z M10.3277311,18.6645833 C10.3277311,19.5839073 9.58279311,20.3291667 8.66386555,20.3291667 C7.74493798,20.3291667 7,19.5839073 7,18.6645833 C7,17.7452593 7.74493798,17 8.66386555,17 C9.58279311,17 10.3277311,17.7452593 10.3277311,18.6645833 Z M68.05,17 C70.7804246,17.0082958 72.9918454,19.2580096 73,22.0357143 L73,58.9642857 C72.9918454,61.7419904 70.7804246,63.9917042 68.05,64 L11.95,64 C9.21957538,63.9917042 7.00815463,61.7419904 7,58.9642857 L7,28.75 C7,27.8229506 7.73873016,27.0714286 8.65,27.0714286 C9.56126984,27.0714286 10.3,27.8229506 10.3,28.75 L10.3,58.9642857 C10.3,59.891335 11.0387302,60.6428571 11.95,60.6428571 L68.05,60.6428571 C68.9612698,60.6428571 69.7,59.891335 69.7,58.9642857 L69.7,22.0357143 C69.7,21.1086649 68.9612698,20.3571429 68.05,20.3571429 L15.2665,20.3571429 C14.3552302,20.3571429 13.6165,19.6056208 13.6165,18.6785714 C13.6165,17.751522 14.3552302,17 15.2665,17 L68.05,17 Z M35.4713088,52.2487107 C34.7174276,52.2487107 33.8965348,52.0634533 33.0756419,51.8613544 C32.1207258,51.6424139 31.0485392,51.3897903 29.9595998,51.3897903 C28.8706603,51.3897903 27.7817208,51.6424139 26.8100517,51.8613544 C25.1180073,52.2487107 23.5264804,52.6023838 22.2532589,51.5750476 C21.0302961,50.5813945 21.0302961,48.9140784 21.0302961,48.3583063 C21.0302961,45.1873915 22.7130531,42.2573454 25.4446892,40.6718879 C28.1763252,39.0864306 31.5418394,39.0864306 34.2734754,40.6718879 C37.0051114,42.2573454 38.6878685,45.1873915 38.6878685,48.3583063 C38.6878685,48.9140784 38.6878685,50.6150777 37.4649057,51.5918892 C36.896598,52.0372773 36.1916082,52.2695473 35.4713088,52.2487107 Z M29.8423294,42.8511106 C26.8198582,42.858517 24.3714936,45.3198392 24.3640241,48.3583063 C24.3628216,48.5329186 24.3740191,48.7073991 24.397632,48.8803952 C24.9619219,48.8153652 25.5214953,48.7141089 26.0729235,48.5772468 C27.161863,48.3414648 28.5020962,48.0383164 29.9595998,48.0383164 C31.4171034,48.0383164 32.7573366,48.3414648 33.8295231,48.5940884 C34.3088084,48.7205791 34.7956312,48.816209 35.2870267,48.8803952 C35.3101154,48.712993 35.3213124,48.5441498 35.3205706,48.3751479 C35.3150431,45.3331609 32.868271,42.8659175 29.8423294,42.8511106 Z M18.1152889,42.8005858 C16.2671042,42.7950369 14.7702256,41.2902364 14.7647059,39.4322704 C14.7647059,37.5720011 16.264813,36.0639549 18.1152889,36.0639549 C19.9657648,36.0639549 21.4658719,37.5720011 21.4658719,39.4322704 C21.4658719,41.2925396 19.9657648,42.8005858 18.1152889,42.8005858 Z M41.5023582,42.8005858 C39.6541734,42.7950369 38.1572949,41.2902364 38.1517752,39.4322704 C38.1517752,37.5720011 39.6518823,36.0639549 41.5023582,36.0639549 C43.3528341,36.0639549 44.8529412,37.5720011 44.8529412,39.4322704 C44.8529412,41.2925396 43.3528341,42.8005858 41.5023582,42.8005858 Z M24.9169724,37.4449643 C23.0687876,37.4394153 21.5719091,35.9346148 21.5663894,34.0766488 C21.5663894,32.2163795 23.0664965,30.7083333 24.9169724,30.7083333 C26.7674482,30.7083333 28.2675554,32.2163795 28.2675554,34.0766488 C28.2675554,35.9369181 26.7674482,37.4449643 24.9169724,37.4449643 Z M34.7509334,37.4449643 C32.9027487,37.4394153 31.4058702,35.9346148 31.4003505,34.0766488 C31.4003505,32.2163795 32.9004576,30.7083333 34.7509334,30.7083333 C36.6014093,30.7083333 38.1015164,32.2163795 38.1015164,34.0766488 C38.1015164,35.9369181 36.6014093,37.4449643 34.7509334,37.4449643 Z" id="Combined-Shape" fill="#ADB5BD"></path>
    </g>
</svg>

<svg width="80" height="80">
    <title>
        Illustrative Icons/Permis-animal-generique
    </title>
    <path d="M53.588 33.646a1.664 1.664 0 0 1 0-3.33h9.983a1.664 1.664 0 0 1 0 3.33h-9.983zm0 8.323a1.664 1.664 0 0 1 0-3.33h6.656a1.664 1.664 0 0 1 0 3.33h-6.656zm0 8.323a1.664 1.664 0 0 1 0-3.33h8.32a1.664 1.664 0 0 1 0 3.33h-8.32zm-43.26-31.627a1.664 1.664 0 1 1-3.329 0 1.664 1.664 0 0 1 3.329 0zM68.05 17c2.73.008 4.942 2.258 4.95 5.036v36.928c-.008 2.778-2.22 5.028-4.95 5.036h-56.1c-2.73-.008-4.942-2.258-4.95-5.036V28.75c0-.927.739-1.679 1.65-1.679.911 0 1.65.752 1.65 1.679v30.214c0 .927.739 1.679 1.65 1.679h56.1c.911 0 1.65-.752 1.65-1.679V22.036c0-.927-.739-1.679-1.65-1.679H15.267c-.912 0-1.65-.751-1.65-1.678 0-.927.738-1.679 1.65-1.679H68.05zM35.471 52.249c-.754 0-1.574-.186-2.395-.388-.955-.219-2.027-.471-3.116-.471-1.09 0-2.178.252-3.15.471-1.692.388-3.284.741-4.557-.286-1.223-.994-1.223-2.66-1.223-3.217a8.884 8.884 0 0 1 4.415-7.686 8.789 8.789 0 0 1 8.828 0 8.884 8.884 0 0 1 4.415 7.686c0 .556 0 2.257-1.223 3.234a3.087 3.087 0 0 1-1.994.657zm-5.629-9.398c-3.022.008-5.47 2.469-5.478 5.507-.001.175.01.35.034.522a13.253 13.253 0 0 0 1.675-.303c1.089-.236 2.43-.539 3.887-.539 1.457 0 2.797.303 3.87.556.479.127.966.222 1.457.286.023-.167.034-.336.034-.505-.006-3.042-2.453-5.51-5.479-5.524zm-11.727-.05a3.37 3.37 0 0 1-3.35-3.369 3.36 3.36 0 0 1 3.35-3.368 3.36 3.36 0 0 1 3.35 3.368 3.36 3.36 0 0 1-3.35 3.369zm23.387 0a3.37 3.37 0 0 1-3.35-3.369 3.36 3.36 0 0 1 3.35-3.368 3.36 3.36 0 0 1 3.35 3.368 3.36 3.36 0 0 1-3.35 3.369zm-16.585-5.356a3.37 3.37 0 0 1-3.35-3.368 3.36 3.36 0 0 1 3.35-3.369 3.36 3.36 0 0 1 3.35 3.369 3.36 3.36 0 0 1-3.35 3.368zm9.834 0a3.37 3.37 0 0 1-3.35-3.368 3.36 3.36 0 0 1 3.35-3.369 3.36 3.36 0 0 1 3.35 3.369 3.36 3.36 0 0 1-3.35 3.368z" fill="#ADB5BD" fill-rule="evenodd"/>
</svg>
